googlecloud.svg

<svg viewBox="0 0 24 24" xmlns="http://www.w3.org/2000/svg"><path d="M15.2289 7.66154L15.9609 7.66154L18.047 5.57541L18.1495 4.68972C15.7198 2.54525 12.3551 1.80736 9.25105 2.73828C6.14699 3.6692 3.74365 6.13696 2.89514 9.26456C3.12754 9.1693 3.38499 9.15385 3.62711 9.22064L7.79936 8.53258C7.79936 8.53258 8.01164 8.18124 8.12143 8.2032C9.97735 6.16492 13.1007 5.92737 15.2435 7.66153L15.2289 7.66154Z" fill="#ea4335"/><path d="M21.0188 9.26456C20.5393 7.49877 19.5548 5.91135 18.1861 4.69704L15.2582 7.62494C16.4945 8.63515 17.1988 10.157 17.1686 11.7533L17.1686 12.273C18.6081 12.2725 19.7754 13.4393 19.7754 14.8788C19.7754 16.3183 18.6081 17.4851 17.1686 17.4846L11.957 17.4846L11.4373 18.0116L11.4373 21.1372L11.957 21.6569L17.1686 21.6569C20.1568 21.6801 22.8076 19.7438 23.6943 16.8901C24.5809 14.0364 23.4941 10.9387 21.0188 9.26456Z" fill="#4285f4"/><path d="M6.738 21.6276L11.9497 21.6276L11.9497 17.4553L6.738 17.4553C6.36669 17.4553 5.99974 17.3754 5.662 17.2211L4.93003 17.448L2.82926 19.5342L2.64627 20.2661C3.82433 21.1557 5.26181 21.634 6.738 21.6276Z" fill="#34a853"/><path d="M6.738 8.0934C3.84311 8.11069 1.27874 9.96465 0.35485 12.7082C-0.569038 15.4518 0.351516 18.4793 2.64627 20.2442L5.66932 17.2211C4.6131 16.7439 3.99901 15.6265 4.1624 14.479C4.3258 13.3316 5.22741 12.43 6.37484 12.2666C7.52228 12.1032 8.63972 12.7173 9.11692 13.7735L12.14 10.7505C10.8537 9.06895 8.85503 8.08585 6.738 8.0934Z" fill="#fbbc05"/></svg>

<svg viewBox="0 0 24 24" xmlns="http://www.w3.org/2000/svg"><path d="M15.229 7.662h.732l2.086-2.087.102-.885A9.377 9.377 0 0 0 2.896 9.265c.233-.096.49-.111.732-.044L7.8 8.533s.213-.352.322-.33a5.204 5.204 0 0 1 7.122-.541h-.014Z" fill="#ea4335"/><path d="M21.019 9.265a9.399 9.399 0 0 0-2.833-4.568l-2.928 2.928a5.204 5.204 0 0 1 1.91 4.128v.52a2.606 2.606 0 1 1 0 5.212h-5.211l-.52.527v3.125l.52.52h5.212a6.778 6.778 0 0 0 3.85-12.392Z" fill="#4285f4"/><path d="M6.738 21.628h5.212v-4.173H6.738a2.59 2.59 0 0 1-1.076-.234l-.732.227-2.1 2.086-.184.732a6.741 6.741 0 0 0 4.092 1.362Z" fill="#34a853"/><path d="M6.738 8.093a6.778 6.778 0 0 0-4.092 12.151l3.023-3.023a2.606 2.606 0 1 1 3.448-3.447l3.023-3.023a6.77 6.77 0 0 0-5.402-2.658Z" fill="#fbbc05"/></svg>
